static/icons/companies/tailcall-white.svg

<svg width="120" height="32" viewBox="0 0 120 32" fill="none" xmlns="http://www.w3.org/2000/svg">
<path fill-rule="evenodd" clip-rule="evenodd" d="M37.8647 2.13333H12.798C9.72074 2.13333 7.62738 2.13786 6.05976 2.34862C4.55352 2.55113 3.85587 2.90819 3.38106 3.38301C2.90624 3.85783 2.54918 4.55548 2.34667 6.06172C2.13591 7.62934 2.13138 9.7227 2.13138 12.8V19.2C2.13138 22.2773 2.13591 24.3707 2.34667 25.9383C2.54918 27.4445 2.90624 28.1422 3.38106 28.617C3.85587 29.0918 4.55352 29.4489 6.05977 29.6514C7.62738 29.8621 9.72074 29.8667 12.798 29.8667H37.8647C40.942 29.8667 43.0354 29.8621 44.603 29.6514C46.1092 29.4489 46.8069 29.0918 47.2817 28.617C47.7565 28.1422 48.1135 27.4445 48.3161 25.9383C48.5268 24.3707 48.5313 22.2773 48.5313 19.2V12.8C48.5313 9.7227 48.5268 7.62934 48.3161 6.06172C48.1135 4.55548 47.7565 3.85783 47.2817 3.38301C46.8069 2.90819 46.1092 2.55113 44.603 2.34862C43.0354 2.13786 40.942 2.13333 37.8647 2.13333ZM1.87256 1.87452C-0.00195312 3.74903 -0.00195312 6.76602 -0.00195312 12.8V19.2C-0.00195312 25.234 -0.00195312 28.251 1.87256 30.1255C3.74708 32 6.76407 32 12.798 32H37.8647C43.8987 32 46.9157 32 48.7902 30.1255C50.6647 28.251 50.6647 25.234 50.6647 19.2V12.8C50.6647 6.76602 50.6647 3.74903 48.7902 1.87452C46.9157 0 43.8987 0 37.8647 0H12.798C6.76406 0 3.74708 0 1.87256 1.87452Z" fill="white"/>
<path fill-rule="evenodd" clip-rule="evenodd" d="M12.9627 8.43136C13.4609 7.93321 14.2685 7.93321 14.7667 8.43136L21.4333 15.098C21.9315 15.5962 21.9315 16.4038 21.4333 16.902L14.7667 23.5686C14.2685 24.0668 13.4609 24.0668 12.9627 23.5686C12.4646 23.0705 12.4646 22.2628 12.9627 21.7647L18.7274 16L12.9627 10.2353C12.4646 9.73716 12.4646 8.9295 12.9627 8.43136Z" fill="white"/>
<path d="M25.1303 22.7047C25.1303 21.9975 25.7036 21.4242 26.4108 21.4242H37.3673C38.0786 21.4242 38.6553 22.0008 38.6553 22.7121C38.6553 23.4234 38.0786 24 37.3673 24H31.8928L26.4073 23.9852C25.7015 23.9832 25.1303 23.4105 25.1303 22.7047Z" fill="white"/>
<path d="M60.1732 23.84C59.4415 23.84 58.8442 23.616 58.3812 23.168C57.9332 22.7051 57.7092 22.0928 57.7092 21.3312V15.0592H54.9316V12.7296H57.7092V9.28004H60.5316V12.7296H63.578V15.0592H60.5316V20.8384C60.5316 21.2864 60.7407 21.5104 61.1588 21.5104H63.3092V23.84H60.1732Z" fill="white"/>
<path d="M68.6865 24.1536C67.895 24.1536 67.1857 24.0192 66.5585 23.7504C65.9313 23.4667 65.431 23.0635 65.0577 22.5408C64.6993 22.0032 64.5201 21.3536 64.5201 20.592C64.5201 19.8304 64.6993 19.1958 65.0577 18.688C65.431 18.1654 65.9387 17.7771 66.5809 17.5232C67.2379 17.2544 67.9846 17.12 68.8209 17.12H71.8673V16.4928C71.8673 15.9702 71.703 15.5446 71.3745 15.216C71.0459 14.8726 70.5233 14.7008 69.8065 14.7008C69.1046 14.7008 68.5819 14.8651 68.2385 15.1936C67.895 15.5072 67.671 15.9179 67.5665 16.4256L64.9681 15.552C65.1473 14.9846 65.431 14.4694 65.8193 14.0064C66.2225 13.5286 66.7526 13.1478 67.4097 12.864C68.0817 12.5654 68.8955 12.416 69.8513 12.416C71.3147 12.416 72.4721 12.7819 73.3233 13.5136C74.1745 14.2454 74.6001 15.3056 74.6001 16.6944V20.8384C74.6001 21.2864 74.8091 21.5104 75.2273 21.5104H76.1233V23.84H74.2417C73.6891 23.84 73.2337 23.7056 72.8753 23.4368C72.5169 23.168 72.3377 22.8096 72.3377 22.3616V22.3392H71.9121C71.8523 22.5184 71.7179 22.7574 71.5089 23.056C71.2998 23.3398 70.9713 23.5936 70.5233 23.8176C70.0753 24.0416 69.463 24.1536 68.6865 24.1536ZM69.1793 21.8688C69.9707 21.8688 70.6129 21.6523 71.1057 21.2192C71.6134 20.7712 71.8673 20.1814 71.8673 19.4496V19.2256H69.0225C68.4998 19.2256 68.0891 19.3376 67.7905 19.5616C67.4918 19.7856 67.3425 20.0992 67.3425 20.5024C67.3425 20.9056 67.4993 21.2342 67.8129 21.488C68.1265 21.7419 68.5819 21.8688 69.1793 21.8688Z" fill="white"/>
<path d="M77.2909 23.84V12.7296H80.1132V23.84H77.2909ZM78.7021 11.4304C78.1943 11.4304 77.7613 11.2662 77.4029 10.9376C77.0594 10.6091 76.8877 10.176 76.8877 9.63844C76.8877 9.10084 77.0594 8.66777 77.4029 8.33924C77.7613 8.0107 78.1943 7.84644 78.7021 7.84644C79.2247 7.84644 79.6578 8.0107 80.0012 8.33924C80.3447 8.66777 80.5164 9.10084 80.5164 9.63844C80.5164 10.176 80.3447 10.6091 80.0012 10.9376C79.6578 11.2662 79.2247 11.4304 78.7021 11.4304Z" fill="white"/>
<path d="M82.3448 23.84V8.16004H85.1672V23.84H82.3448Z" fill="white"/>
<path d="M92.618 24.1536C91.5428 24.1536 90.5647 23.9296 89.6836 23.4816C88.8175 23.0336 88.1306 22.384 87.6228 21.5328C87.1151 20.6816 86.8612 19.6512 86.8612 18.4416V18.128C86.8612 16.9184 87.1151 15.888 87.6228 15.0368C88.1306 14.1856 88.8175 13.536 89.6836 13.088C90.5647 12.64 91.5428 12.416 92.618 12.416C93.6783 12.416 94.5892 12.6027 95.3508 12.976C96.1124 13.3494 96.7247 13.8646 97.1876 14.5216C97.6655 15.1638 97.9791 15.8955 98.1284 16.7168L95.3956 17.2992C95.3359 16.8512 95.2015 16.448 94.9924 16.0896C94.7834 15.7312 94.4847 15.4475 94.0964 15.2384C93.7231 15.0294 93.2527 14.9248 92.6852 14.9248C92.1178 14.9248 91.6026 15.0518 91.1396 15.3056C90.6916 15.5446 90.3332 15.9104 90.0644 16.4032C89.8106 16.8811 89.6836 17.471 89.6836 18.1728V18.3968C89.6836 19.0987 89.8106 19.696 90.0644 20.1888C90.3332 20.6667 90.6916 21.0326 91.1396 21.2864C91.6026 21.5254 92.1178 21.6448 92.6852 21.6448C93.5364 21.6448 94.1786 21.4283 94.6116 20.9952C95.0596 20.5472 95.3434 19.9648 95.4628 19.248L98.1956 19.8976C98.0015 20.6891 97.6655 21.4134 97.1876 22.0704C96.7247 22.7126 96.1124 23.2203 95.3508 23.5936C94.5892 23.967 93.6783 24.1536 92.618 24.1536Z" fill="white"/>
<path d="M103.077 24.1536C102.286 24.1536 101.577 24.0192 100.949 23.7504C100.322 23.4667 99.822 23.0635 99.4486 22.5408C99.0902 22.0032 98.911 21.3536 98.911 20.592C98.911 19.8304 99.0902 19.1958 99.4486 18.688C99.822 18.1654 100.33 17.7771 100.972 17.5232C101.629 17.2544 102.376 17.12 103.212 17.12H106.258V16.4928C106.258 15.9702 106.094 15.5446 105.765 15.216C105.437 14.8726 104.914 14.7008 104.197 14.7008C103.496 14.7008 102.973 14.8651 102.629 15.1936C102.286 15.5072 102.062 15.9179 101.957 16.4256L99.359 15.552C99.5382 14.9846 99.822 14.4694 100.21 14.0064C100.613 13.5286 101.144 13.1478 101.801 12.864C102.473 12.5654 103.287 12.416 104.242 12.416C105.706 12.416 106.863 12.7819 107.714 13.5136C108.565 14.2454 108.991 15.3056 108.991 16.6944V20.8384C108.991 21.2864 109.2 21.5104 109.618 21.5104H110.514V23.84H108.633C108.08 23.84 107.625 23.7056 107.266 23.4368C106.908 23.168 106.729 22.8096 106.729 22.3616V22.3392H106.303C106.243 22.5184 106.109 22.7574 105.9 23.056C105.691 23.3398 105.362 23.5936 104.914 23.8176C104.466 24.0416 103.854 24.1536 103.077 24.1536ZM103.57 21.8688C104.362 21.8688 105.004 21.6523 105.497 21.2192C106.004 20.7712 106.258 20.1814 106.258 19.4496V19.2256H103.413C102.891 19.2256 102.48 19.3376 102.181 19.5616C101.883 19.7856 101.733 20.0992 101.733 20.5024C101.733 20.9056 101.89 21.2342 102.204 21.488C102.517 21.7419 102.973 21.8688 103.57 21.8688Z" fill="white"/>
<path d="M111.682 23.84V8.16004H114.504V23.84H111.682Z" fill="white"/>
<path d="M116.736 23.84V8.16004H119.558V23.84H116.736Z" fill="white"/>
</svg>

<svg xmlns="http://www.w3.org/2000/svg" width="120" height="32" fill="none"><path fill="#fff" fill-rule="evenodd" d="M37.865 2.133H12.798c-3.077 0-5.17.005-6.738.216-1.506.202-2.204.56-2.679 1.034-.475.475-.832 1.172-1.034 2.679-.211 1.567-.216 3.66-.216 6.738v6.4c0 3.077.005 5.17.216 6.738.202 1.507.56 2.204 1.034 2.679.475.475 1.173.832 2.679 1.034 1.567.211 3.66.216 6.738.216h25.067c3.077 0 5.17-.005 6.738-.216 1.506-.202 2.204-.56 2.679-1.034.475-.475.832-1.172 1.034-2.679.21-1.567.215-3.66.215-6.738v-6.4c0-3.077-.004-5.17-.215-6.738-.203-1.507-.56-2.204-1.034-2.679-.475-.475-1.173-.832-2.679-1.034-1.568-.211-3.661-.216-6.738-.216M1.873 1.875C-.002 3.749-.002 6.766-.002 12.8v6.4c0 6.034 0 9.051 1.875 10.926C3.747 32 6.764 32 12.798 32h25.067c6.034 0 9.05 0 10.925-1.875 1.875-1.874 1.875-4.891 1.875-10.925v-6.4c0-6.034 0-9.051-1.875-10.925C46.916 0 43.9 0 37.865 0H12.798C6.764 0 3.748 0 1.873 1.875" clip-rule="evenodd"/><path fill="#fff" fill-rule="evenodd" d="M12.963 8.431a1.276 1.276 0 0 1 1.804 0l6.666 6.667a1.276 1.276 0 0 1 0 1.804l-6.666 6.667a1.276 1.276 0 1 1-1.804-1.804L18.727 16l-5.764-5.765a1.276 1.276 0 0 1 0-1.804" clip-rule="evenodd"/><path fill="#fff" d="M25.13 22.705c0-.707.574-1.28 1.28-1.28h10.957a1.288 1.288 0 1 1 0 2.575h-5.474l-5.486-.015a1.28 1.28 0 0 1-1.277-1.28M60.173 23.84c-.732 0-1.329-.224-1.792-.672-.448-.463-.672-1.075-.672-1.837V15.06h-2.777v-2.33h2.777V9.28h2.823v3.45h3.046v2.33h-3.046v5.778c0 .448.209.672.627.672h2.15v2.33zM68.687 24.154c-.792 0-1.501-.135-2.129-.404a3.65 3.65 0 0 1-1.5-1.21c-.359-.537-.538-1.186-.538-1.948s.18-1.396.538-1.904c.373-.523.88-.91 1.523-1.165.657-.269 1.404-.403 2.24-.403h3.046v-.627c0-.523-.164-.948-.493-1.277-.328-.343-.85-.515-1.567-.515-.702 0-1.225.164-1.569.493-.343.313-.567.724-.671 1.232l-2.599-.874c.18-.567.463-1.083.851-1.546.403-.477.934-.858 1.59-1.142.673-.299 1.486-.448 2.442-.448 1.464 0 2.621.366 3.472 1.098.852.731 1.277 1.792 1.277 3.18v4.144c0 .448.21.672.627.672h.896v2.33h-1.881c-.553 0-1.008-.134-1.367-.403a1.277 1.277 0 0 1-.537-1.075v-.023h-.426c-.06.18-.194.418-.403.717-.21.284-.538.538-.986.762-.448.224-1.06.336-1.837.336m.492-2.285c.792 0 1.434-.217 1.927-.65.507-.448.761-1.038.761-1.77v-.223h-2.845c-.522 0-.933.112-1.232.336-.298.224-.448.537-.448.94 0 .404.157.732.47.986.314.254.77.38 1.367.38M77.29 23.84V12.73h2.823v11.11zm1.412-12.41c-.508 0-.94-.164-1.3-.492-.343-.329-.514-.762-.514-1.3 0-.537.171-.97.515-1.299a1.854 1.854 0 0 1 1.3-.493c.522 0 .955.165 1.298.493.344.329.515.762.515 1.3 0 .537-.171.97-.515 1.299-.343.328-.776.492-1.299.492M82.345 23.84V8.16h2.822v15.68zM92.618 24.154c-1.075 0-2.053-.224-2.934-.672a5.075 5.075 0 0 1-2.061-1.95c-.508-.85-.762-1.88-.762-3.09v-.314c0-1.21.254-2.24.762-3.091a5.075 5.075 0 0 1 2.06-1.949c.882-.448 1.86-.672 2.935-.672 1.06 0 1.971.187 2.733.56a4.769 4.769 0 0 1 1.837 1.546c.477.642.791 1.374.94 2.195l-2.732.582a3.217 3.217 0 0 0-.404-1.21 2.24 2.24 0 0 0-.896-.85c-.373-.21-.843-.314-1.41-.314-.568 0-1.083.127-1.546.38-.448.24-.807.605-1.076 1.098-.253.478-.38 1.068-.38 1.77v.224c0 .702.127 1.299.38 1.792.27.478.628.844 1.076 1.097.463.24.978.359 1.545.359.851 0 1.494-.217 1.927-.65.448-.448.731-1.03.85-1.747l2.734.65a6.148 6.148 0 0 1-1.008 2.172 4.846 4.846 0 0 1-1.837 1.524c-.762.373-1.673.56-2.733.56M103.077 24.154c-.791 0-1.5-.135-2.128-.404a3.65 3.65 0 0 1-1.5-1.21c-.359-.537-.538-1.186-.538-1.948s.18-1.396.538-1.904c.373-.523.881-.91 1.523-1.165.657-.269 1.404-.403 2.24-.403h3.046v-.627c0-.523-.164-.948-.493-1.277-.328-.343-.851-.515-1.568-.515-.701 0-1.224.164-1.568.493-.343.313-.567.724-.672 1.232l-2.598-.874c.18-.567.463-1.083.851-1.546.403-.477.934-.858 1.591-1.142.672-.299 1.486-.448 2.441-.448 1.464 0 2.621.366 3.472 1.098.851.731 1.277 1.792 1.277 3.18v4.144c0 .448.209.672.627.672h.896v2.33h-1.881c-.553 0-1.008-.134-1.367-.403a1.278 1.278 0 0 1-.537-1.075v-.023h-.426c-.06.18-.194.418-.403.717-.209.284-.538.538-.986.762-.448.224-1.06.336-1.837.336m.493-2.285c.792 0 1.434-.217 1.927-.65.507-.448.761-1.038.761-1.77v-.223h-2.845c-.522 0-.933.112-1.232.336-.298.224-.448.537-.448.94 0 .404.157.732.471.986.313.254.769.38 1.366.38M111.682 23.84V8.16h2.822v15.68zM116.736 23.84V8.16h2.822v15.68z"/></svg>
